assets/svgs/misc-grey/MiscGrey41.svg

<svg width="29" height="38" viewBox="0 0 29 38" fill="none" xmlns="http://www.w3.org/2000/svg">
<path fill-rule="evenodd" clip-rule="evenodd" d="M14.22 23.311C14.59 23.311 14.96 23.445 15.25 23.716L25.04 32.886V6.17499C25.04 5.34099 24.83 4.74399 24.4 4.34999C23.69 3.69399 22.43 3.63999 22.01 3.67599C21.97 3.67899 21.92 3.68199 21.88 3.68199H5.68003C5.00003 3.68199 4.49003 3.86099 4.14003 4.22999C3.47003 4.93199 3.39003 6.23299 3.41003 6.54399V32.886L13.2 23.716C13.49 23.445 13.85 23.311 14.22 23.311ZM3.41003 36.347H3.42003H3.41003ZM26.54 37.847C26.16 37.847 25.79 37.707 25.51 37.441L14.22 26.866L2.94003 37.441C2.50003 37.851 1.86003 37.962 1.31003 37.723C0.77003 37.485 0.41003 36.944 0.41003 36.347V6.61899C0.40003 6.41199 0.32003 3.88999 1.96003 2.16299C2.89003 1.19399 4.17003 0.681985 5.68003 0.681985H21.82C22.35 0.641985 24.71 0.574985 26.41 2.12199C27.15 2.79699 28.04 4.04798 28.04 6.17498V36.347C28.04 36.944 27.68 37.485 27.13 37.723C26.94 37.807 26.74 37.847 26.54 37.847Z" fill="#1A1919"/>
</svg>

<svg xmlns="http://www.w3.org/2000/svg" fill="none" viewBox="0 0 29 38"><path fill="#1A1919" fill-rule="evenodd" d="M14.22 23.311c.37 0 .74.134 1.03.405l9.79 9.17V6.175c0-.834-.21-1.431-.64-1.825-.71-.656-1.97-.71-2.39-.674-.04.003-.09.006-.13.006H5.68c-.68 0-1.19.179-1.54.548-.67.702-.75 2.003-.73 2.314v26.342l9.79-9.17a1.48 1.48 0 011.02-.405zM3.41 36.347h.01-.01zm23.13 1.5c-.38 0-.75-.14-1.03-.406L14.22 26.866 2.94 37.441a1.51 1.51 0 01-1.63.282c-.54-.238-.9-.779-.9-1.376V6.619C.4 6.412.32 3.89 1.96 2.163 2.89 1.194 4.17.682 5.68.682h16.14c.53-.04 2.89-.107 4.59 1.44.74.675 1.63 1.926 1.63 4.053v30.172a1.504 1.504 0 01-1.5 1.5z" clip-rule="evenodd"/></svg>
